X: 34054
T: Reel De La Barricade
R: reel
M: 4/4
K: Bminor
F2|:Bcdf e2Ac|defg fedc|Bcdf (3ege cd|edcB c2F2|
Bcdf e2Ac|defg fedc|Bcdf e2ag|1 fedc B2F2:|2 fedc B2f2||
f3d (3cdc (3BcB|A2F2 GBAG|(3FAF DF Adfd|e3[BG] [BG]4|
g3f (3ege d2|a3[ec] [ec]2ef|g2 (3faf (3ege (3dfd|(3cdc (3BcB (3ABA G2|
f3d (3cdc (3BcB|A2F2 GBAG|(3FAF DF Adfd|e3[BG] [GB]3d|
(3dfd cd e3d|~c2fe d3f|fedc BAGF|GABc B2F2||

